icons/file-zip-16.svg

<svg xmlns="http://www.w3.org/2000/svg" width="16" height="16" viewBox="0 0 16 16"><path d="M3.5 1.75v11.5c0 .09.048.173.126.217a.75.75 0 01-.752 1.298A1.748 1.748 0 012 13.25V1.75C2 .784 2.784 0 3.75 0h5.586c.464 0 .909.185 1.237.513l2.914 2.914c.329.328.513.773.513 1.237v8.586A1.75 1.75 0 0112.25 15h-.5a.75.75 0 010-1.5h.5a.25.25 0 00.25-.25V4.664a.25.25 0 00-.073-.177L9.513 1.573a.25.25 0 00-.177-.073H7.25a.75.75 0 010 1.5h-.5a.75.75 0 010-1.5h-3a.25.25 0 00-.25.25zm3.75 8.75h.5c.966 0 1.75.784 1.75 1.75v3a.75.75 0 01-.75.75h-2.5a.75.75 0 01-.75-.75v-3c0-.966.784-1.75 1.75-1.75zM6 5.25a.75.75 0 01.75-.75h.5a.75.75 0 010 1.5h-.5A.75.75 0 016 5.25zm.75 2.25h.5a.75.75 0 010 1.5h-.5a.75.75 0 010-1.5zM8 6.75A.75.75 0 018.75 6h.5a.75.75 0 010 1.5h-.5A.75.75 0 018 6.75zM8.75 3h.5a.75.75 0 010 1.5h-.5a.75.75 0 010-1.5zM8 9.75A.75.75 0 018.75 9h.5a.75.75 0 010 1.5h-.5A.75.75 0 018 9.75zm-1 2.5v2.25h1v-2.25a.25.25 0 00-.25-.25h-.5a.25.25 0 00-.25.25z"/></svg>

<svg xmlns="http://www.w3.org/2000/svg" width="16" height="16" viewBox="0 0 16 16">
  <defs/>
  <path d="M3.5,1.75 L3.5,13.25 C3.5,13.34 3.548,13.423 3.626,13.467 C3.984,13.675 4.107,14.134 3.899,14.492 C3.691,14.85 3.232,14.973 2.874,14.765 C2.353,14.464 2,13.899 2,13.25 L2,1.75 C2,0.784 2.784,0 3.75,0 L9.336,0 C9.8,0 10.245,0.185 10.573,0.513 L13.487,3.427 C13.816,3.755 14,4.2 14,4.664 L14,13.25 C14,14.216 13.216,15 12.25,15 L11.75,15 C11.336,15 11,14.664 11,14.25 C11,13.836 11.336,13.5 11.75,13.5 L12.25,13.5 C12.388,13.5 12.5,13.388 12.5,13.25 L12.5,4.664 C12.5,4.598 12.474,4.534 12.427,4.487 L9.513,1.573 C9.466,1.526 9.402,1.5 9.336,1.5 L7.25,1.5 C7.664,1.5 8,1.836 8,2.25 C8,2.664 7.664,3 7.25,3 L6.75,3 C6.336,3 6,2.664 6,2.25 C6,1.836 6.336,1.5 6.75,1.5 L3.75,1.5 C3.612,1.5 3.5,1.612 3.5,1.75 Z M7.25,10.5 L7.75,10.5 C8.716,10.5 9.5,11.284 9.5,12.25 L9.5,15.25 C9.5,15.664 9.164,16 8.75,16 L6.25,16 C5.836,16 5.5,15.664 5.5,15.25 L5.5,12.25 C5.5,11.284 6.284,10.5 7.25,10.5 Z M6,5.25 C6,4.836 6.336,4.5 6.75,4.5 L7.25,4.5 C7.664,4.5 8,4.836 8,5.25 C8,5.664 7.664,6 7.25,6 L6.75,6 C6.336,6 6,5.664 6,5.25 Z M6.75,7.5 L7.25,7.5 C7.664,7.5 8,7.836 8,8.25 C8,8.664 7.664,9 7.25,9 L6.75,9 C6.336,9 6,8.664 6,8.25 C6,7.836 6.336,7.5 6.75,7.5 Z M8,6.75 C8,6.336 8.336,6 8.75,6 L9.25,6 C9.664,6 10,6.336 10,6.75 C10,7.164 9.664,7.5 9.25,7.5 L8.75,7.5 C8.336,7.5 8,7.164 8,6.75 Z M8.75,3 L9.25,3 C9.664,3 10,3.336 10,3.75 C10,4.164 9.664,4.5 9.25,4.5 L8.75,4.5 C8.336,4.5 8,4.164 8,3.75 C8,3.336 8.336,3 8.75,3 Z M8,9.75 C8,9.336 8.336,9 8.75,9 L9.25,9 C9.664,9 10,9.336 10,9.75 C10,10.164 9.664,10.5 9.25,10.5 L8.75,10.5 C8.336,10.5 8,10.164 8,9.75 Z M7,12.25 L7,14.5 L8,14.5 L8,12.25 C8,12.112 7.888,12 7.75,12 L7.25,12 C7.112,12 7,12.112 7,12.25 Z"/>
</svg>
